X: 43440
T: Yanik's
R: jig
M: 6/8
K: Cmajor
|:G2C EDC|EFG GEG|AFd BGg|efd ~e2d|
c2C EDC|EFG GEG|AFd ~B3|1 ced cBA:|2 ced cgf||
|:~e3 cGC|EGc ecg|~f3 dfc|~B3 Ggf|
~e3 cGC|EGc ecg|~f3 dfc|1 BAB cgf:|2 BAB cBA||

